app/img/icomoon/sun-battery.svg

<svg width="24" height="24" viewBox="0 0 24 24" fill="none" xmlns="http://www.w3.org/2000/svg">
<path d="M11 0V2.59375L9.1875 0.8125L7.8125 2.1875L9.59375 4H7V6H9.59375L7.8125 7.8125L9.1875 9.1875L11 7.40625V10H13V7.40625L14.8125 9.1875L16.1875 7.8125L14.4062 6H17V4H14.4062L16.1875 2.1875L14.8125 0.8125L13 2.59375V0H11ZM12 3C13.1016 3 14 3.89844 14 5C14 6.10156 13.1016 7 12 7C10.8984 7 10 6.10156 10 5C10 3.89844 10.8984 3 12 3ZM2.21875 12L0 20.875V24H24V20.875L21.7812 12H2.21875ZM3.78125 14H20.2188L22 21.125V22H2V21.125L3.78125 14ZM5 15L4.59375 16.8125H6.6875L7 15H5ZM9 15L8.8125 16.8125H10.9062L11 15H9ZM13 15L13.0938 16.8125H15.1875L15 15H13ZM17 15L17.3125 16.8125H19.4062L19 15H17ZM4.1875 18.8125L3.8125 21H6.09375L6.40625 18.8125H4.1875ZM8.6875 18.8125L8.5 21H10.8125L10.9062 18.8125H8.6875ZM13.0938 18.8125L13.1875 21H15.5L15.3125 18.8125H13.0938ZM17.5938 18.8125L17.9062 21H20.1875L19.8125 18.8125H17.5938Z" fill="black"/>
</svg>

<svg width="24" height="24" fill="none" xmlns="http://www.w3.org/2000/svg"><path d="M11 0v2.594L9.187.813 7.813 2.188 9.592 4H7v2h2.594L7.813 7.813l1.375 1.375L11 7.405V10h2V7.406l1.813 1.782 1.374-1.376L14.408 6H17V4h-2.594l1.781-1.813L14.813.813 13 2.593V0h-2zm1 3c1.102 0 2 .898 2 2 0 1.102-.898 2-2 2-1.102 0-2-.898-2-2 0-1.102.898-2 2-2zm-9.781 9L0 20.875V24h24v-3.125L21.781 12H2.22zm1.562 2H20.22L22 21.125V22H2v-.875L3.781 14zM5 15l-.406 1.813h2.093L7 15H5zm4 0l-.188 1.813h2.094L11 15H9zm4 0l.094 1.813h2.094L15 15h-2zm4 0l.313 1.813h2.093L19 15h-2zM4.187 18.813L3.813 21h2.282l.312-2.188H4.188zm4.5 0L8.5 21h2.313l.093-2.188H8.687zm4.407 0L13.188 21H15.5l-.188-2.188h-2.218zm4.5 0L17.906 21h2.282l-.375-2.188h-2.22z" fill="#000"/></svg>
